images/cotacao/bamboo-canes.svg

<?xml version="1.0" encoding="UTF-8"?> <!-- Generator: Adobe Illustrator 16.0.0, SVG Export Plug-In . SVG Version: 6.00 Build 0) --> <svg xmlns="http://www.w3.org/2000/svg" xmlns:xlink="http://www.w3.org/1999/xlink" id="Capa_1" x="0px" y="0px" width="405.488px" height="405.487px" viewBox="0 0 405.488 405.487" style="enable-background:new 0 0 405.488 405.487;" xml:space="preserve"> <g> <g> <g id="Layer_5_15_"> <g> <path d="M268.002,102.59c2.661,0.695,4.964-0.983,5.116-3.729c0,0,1.896-33.994,2.774-43.373 c0.739-7.897,5.817-47.92,5.817-47.92c0.347-2.729-1.615-4.793-4.355-4.588c0,0-10.141,0.759-15.119,0.292 c-5.001-0.468-14.881-3.109-14.881-3.109c-2.657-0.71-4.968,0.954-5.134,3.699c0,0-2.414,39.795-3.142,47.534 c-0.896,9.537-5.403,43.764-5.403,43.764c-0.358,2.727,1.589,4.774,4.33,4.55c0,0,9.368-0.765,14.099-0.354 C257.365,99.813,268.002,102.59,268.002,102.59z"></path> <path d="M257.248,217.205c2.661,0.694,4.963-0.984,5.116-3.729c0,0,1.895-33.995,2.772-43.374 c0.741-7.897,5.818-47.92,5.818-47.92c0.347-2.729-1.613-4.793-4.355-4.587c0,0-10.14,0.758-15.118,0.292 c-5.001-0.469-14.883-3.11-14.883-3.11c-2.655-0.71-4.966,0.954-5.133,3.699c0,0-2.414,39.795-3.141,47.535 c-0.896,9.536-5.404,43.765-5.404,43.765c-0.357,2.727,1.59,4.771,4.33,4.55c0,0,9.369-0.768,14.098-0.354 C246.609,214.428,257.248,217.205,257.248,217.205z"></path> <path d="M246.493,331.818c2.661,0.692,4.963-0.983,5.116-3.729c0,0,1.895-33.995,2.772-43.373 c0.741-7.896,5.818-47.921,5.818-47.921c0.347-2.728-1.614-4.792-4.356-4.587c0,0-10.139,0.758-15.118,0.292 c-5.002-0.468-14.881-3.109-14.881-3.109c-2.657-0.711-4.968,0.954-5.135,3.699c0,0-2.413,39.794-3.14,47.534 c-0.896,9.536-5.405,43.764-5.405,43.764c-0.358,2.729,1.591,4.774,4.331,4.55c0,0,9.369-0.766,14.099-0.354 C235.853,329.041,246.493,331.818,246.493,331.818z"></path> <path d="M319.346,152.196c-16.121,14.607-36.383,20.17-38.536,18.288c-2.188-1.911,3.727-20.004,19.85-34.612 c16.123-14.607,36.35-20.199,38.537-18.288C341.538,119.631,335.468,137.588,319.346,152.196z"></path> <path d="M323.052,192.783c-17.223,0.931-31.795-7.262-31.979-9.943c-0.188-2.722,13.168-12.383,30.391-13.313 c17.225-0.932,31.793,7.22,31.979,9.942C353.642,182.384,340.276,191.851,323.052,192.783z"></path> <path d="M289.088,216.567c-7.639-12.142-7.854-24.957-6.063-25.849c1.816-0.905,13.957,5.975,21.596,18.115 c7.639,12.139,7.884,24.942,6.064,25.848C308.737,235.651,296.728,228.708,289.088,216.567z"></path> <path d="M133.16,202.752c2.681-0.612,3.948-3.164,2.816-5.67c0,0-12.428-27.52-15.627-35.385 c-2.694-6.623-15.117-40.274-15.117-40.274c-0.952-2.579-3.645-3.506-5.982-2.058c0,0-7.372,4.565-11.548,6.266 c-4.193,1.706-12.711,3.599-12.711,3.599c-2.685,0.596-3.965,3.139-2.846,5.65c0,0,14.428,32.373,17.068,38.864 c3.252,7.997,13.72,36.776,13.72,36.776c0.94,2.584,3.614,3.501,5.942,2.037c0,0,6.755-4.248,10.707-5.887 C123.978,204.848,133.16,202.752,133.16,202.752z"></path> <path d="M172.251,298.869c2.681-0.612,3.948-3.164,2.816-5.67c0,0-12.428-27.521-15.626-35.387 c-2.694-6.623-15.117-40.272-15.117-40.272c-0.952-2.58-3.645-3.506-5.982-2.06c0,0-7.372,4.564-11.549,6.267 c-4.193,1.707-12.711,3.599-12.711,3.599c-2.684,0.599-3.965,3.142-2.846,5.651c0,0,14.429,32.372,17.068,38.863 c3.253,7.996,13.721,36.775,13.721,36.775c0.94,2.584,3.613,3.501,5.941,2.037c0,0,6.756-4.248,10.708-5.887 C163.071,300.966,172.251,298.869,172.251,298.869z"></path> <path d="M211.344,394.985c2.682-0.612,3.947-3.163,2.815-5.67c0,0-12.427-27.521-15.625-35.387 c-2.693-6.623-15.116-40.272-15.116-40.272c-0.953-2.579-3.646-3.507-5.983-2.06c0,0-7.371,4.565-11.548,6.268 c-4.193,1.706-12.711,3.599-12.711,3.599c-2.685,0.596-3.965,3.139-2.846,5.65c0,0,14.428,32.373,17.068,38.862 c3.253,7.997,13.721,36.777,13.721,36.777c0.939,2.584,3.613,3.501,5.941,2.037c0,0,6.755-4.249,10.707-5.887 C202.163,397.082,211.344,394.985,211.344,394.985z"></path> <path d="M70.599,249.939c13.533-8.321,29.256-9.104,30.68-7.314c1.446,1.812-4.796,14.499-18.329,22.821 c-13.533,8.32-29.234,9.132-30.68,7.314C50.722,270.818,57.064,258.263,70.599,249.939z"></path> <path d="M81.871,212.555c11.33,7.508,15.526,19.406,14.031,21.148c-1.519,1.77-15.67,1.471-27-6.036 c-11.331-7.507-15.55-19.38-14.032-21.148C56.496,204.624,70.54,205.048,81.871,212.555z"></path> </g> </g> </g> </g> <g> </g> <g> </g> <g> </g> <g> </g> <g> </g> <g> </g> <g> </g> <g> </g> <g> </g> <g> </g> <g> </g> <g> </g> <g> </g> <g> </g> <g> </g> </svg>

<svg width="406" height="406" viewBox="0 0 406 406" fill="none" xmlns="http://www.w3.org/2000/svg">
<g clip-path="url(#clip0)">
<path d="M268.002 102.59C270.663 103.285 272.966 101.607 273.118 98.861C273.118 98.861 275.014 64.867 275.892 55.488C276.631 47.591 281.709 7.568 281.709 7.568C282.056 4.839 280.094 2.775 277.354 2.98C277.354 2.98 267.213 3.739 262.235 3.272C257.234 2.804 247.354 0.162998 247.354 0.162998C244.697 -0.547002 242.386 1.117 242.22 3.862C242.22 3.862 239.806 43.657 239.078 51.396C238.182 60.933 233.675 95.16 233.675 95.16C233.317 97.887 235.264 99.934 238.005 99.71C238.005 99.71 247.373 98.945 252.104 99.356C257.365 99.813 268.002 102.59 268.002 102.59Z" fill="black"/>
<path d="M257.248 217.205C259.909 217.899 262.211 216.221 262.364 213.476C262.364 213.476 264.259 179.481 265.136 170.102C265.877 162.205 270.954 122.182 270.954 122.182C271.301 119.453 269.341 117.389 266.599 117.595C266.599 117.595 256.459 118.353 251.481 117.887C246.48 117.418 236.598 114.777 236.598 114.777C233.943 114.067 231.632 115.731 231.465 118.476C231.465 118.476 229.051 158.271 228.324 166.011C227.428 175.547 222.92 209.776 222.92 209.776C222.563 212.503 224.51 214.547 227.25 214.326C227.25 214.326 236.619 213.558 241.348 213.972C246.609 214.428 257.248 217.205 257.248 217.205Z" fill="black"/>
<path d="M246.493 331.818C249.154 332.51 251.456 330.835 251.609 328.089C251.609 328.089 253.504 294.094 254.381 284.716C255.122 276.82 260.199 236.795 260.199 236.795C260.546 234.067 258.585 232.003 255.843 232.208C255.843 232.208 245.704 232.966 240.725 232.5C235.723 232.032 225.844 229.391 225.844 229.391C223.187 228.68 220.876 230.345 220.709 233.09C220.709 233.09 218.296 272.884 217.569 280.624C216.673 290.16 212.164 324.388 212.164 324.388C211.806 327.117 213.755 329.162 216.495 328.938C216.495 328.938 225.864 328.172 230.594 328.584C235.853 329.041 246.493 331.818 246.493 331.818Z" fill="black"/>
<path d="M319.346 152.196C303.225 166.803 282.963 172.366 280.81 170.484C278.622 168.573 284.537 150.48 300.66 135.872C316.783 121.265 337.01 115.673 339.197 117.584C341.538 119.631 335.468 137.588 319.346 152.196Z" fill="black"/>
<path d="M323.052 192.783C305.829 193.714 291.257 185.521 291.073 182.84C290.885 180.118 304.241 170.457 321.464 169.527C338.689 168.595 353.257 176.747 353.443 179.469C353.642 182.384 340.276 191.851 323.052 192.783Z" fill="black"/>
<path d="M289.088 216.567C281.449 204.425 281.234 191.61 283.025 190.718C284.841 189.813 296.982 196.693 304.621 208.833C312.26 220.972 312.505 233.775 310.685 234.681C308.737 235.651 296.728 228.708 289.088 216.567Z" fill="black"/>
<path d="M133.16 202.752C135.841 202.14 137.108 199.588 135.976 197.082C135.976 197.082 123.548 169.562 120.349 161.697C117.655 155.074 105.232 121.423 105.232 121.423C104.28 118.844 101.587 117.917 99.25 119.365C99.25 119.365 91.878 123.93 87.702 125.631C83.509 127.337 74.991 129.23 74.991 129.23C72.306 129.826 71.026 132.369 72.145 134.88C72.145 134.88 86.573 167.253 89.213 173.744C92.465 181.741 102.933 210.52 102.933 210.52C103.873 213.104 106.547 214.021 108.875 212.557C108.875 212.557 115.63 208.309 119.582 206.67C123.978 204.848 133.16 202.752 133.16 202.752Z" fill="black"/>
<path d="M172.251 298.869C174.932 298.257 176.199 295.705 175.067 293.199C175.067 293.199 162.639 265.678 159.441 257.812C156.747 251.189 144.324 217.54 144.324 217.54C143.372 214.96 140.679 214.034 138.342 215.48C138.342 215.48 130.97 220.044 126.793 221.747C122.6 223.454 114.082 225.346 114.082 225.346C111.398 225.945 110.117 228.488 111.236 230.997C111.236 230.997 125.665 263.369 128.304 269.86C131.557 277.856 142.025 306.635 142.025 306.635C142.965 309.219 145.638 310.136 147.966 308.672C147.966 308.672 154.722 304.424 158.674 302.785C163.071 300.966 172.251 298.869 172.251 298.869Z" fill="black"/>
<path d="M211.344 394.985C214.026 394.373 215.291 391.822 214.159 389.315C214.159 389.315 201.732 361.794 198.534 353.928C195.841 347.305 183.418 313.656 183.418 313.656C182.465 311.077 179.772 310.149 177.435 311.596C177.435 311.596 170.064 316.161 165.887 317.864C161.694 319.57 153.176 321.463 153.176 321.463C150.491 322.059 149.211 324.602 150.33 327.113C150.33 327.113 164.758 359.486 167.398 365.975C170.651 373.972 181.119 402.752 181.119 402.752C182.058 405.336 184.732 406.253 187.06 404.789C187.06 404.789 193.815 400.54 197.767 398.902C202.163 397.082 211.344 394.985 211.344 394.985Z" fill="black"/>
<path d="M70.599 249.939C84.132 241.618 99.855 240.835 101.279 242.625C102.725 244.437 96.483 257.124 82.95 265.446C69.417 273.766 53.716 274.578 52.27 272.76C50.722 270.818 57.064 258.263 70.599 249.939Z" fill="black"/>
<path d="M81.871 212.555C93.201 220.063 97.397 231.961 95.902 233.703C94.383 235.473 80.232 235.174 68.902 227.667C57.571 220.16 53.352 208.287 54.87 206.519C56.496 204.624 70.54 205.048 81.871 212.555Z" fill="black"/>
</g>
<defs>
<clipPath id="clip0">
<rect width="405.488" height="405.487" fill="white"/>
</clipPath>
</defs>
</svg>
